assets/icons/qvision/supervised_user_circle.svg

<svg xmlns="http://www.w3.org/2000/svg" height="24" viewBox="0 0 24 24" width="24"><path d="M0 0h24v24H0z" fill="none"/><path d="M11.99 2c-5.52 0-10 4.48-10 10s4.48 10 10 10 10-4.48 10-10-4.48-10-10-10zm3.61 6.34c1.07 0 1.93.86 1.93 1.93 0 1.07-.86 1.93-1.93 1.93-1.07 0-1.93-.86-1.93-1.93-.01-1.07.86-1.93 1.93-1.93zm-6-1.58c1.3 0 2.36 1.06 2.36 2.36 0 1.3-1.06 2.36-2.36 2.36s-2.36-1.06-2.36-2.36c0-1.31 1.05-2.36 2.36-2.36zm0 9.13v3.75c-2.4-.75-4.3-2.6-5.14-4.96 1.05-1.12 3.67-1.69 5.14-1.69.53 0 1.2.08 1.9.22-1.64.87-1.9 2.02-1.9 2.68zM11.99 20c-.27 0-.53-.01-.79-.04v-4.07c0-1.42 2.94-2.13 4.4-2.13 1.07 0 2.92.39 3.84 1.15-1.17 2.97-4.06 5.09-7.45 5.09z"/></svg>

<svg width="24" height="24" viewBox="0 0 24 24" fill="none" xmlns="http://www.w3.org/2000/svg">
<g clip-path="url(#clip0_147_4803)">
<path d="M11.99 2C6.47 2 1.99 6.48 1.99 12C1.99 17.52 6.47 22 11.99 22C17.51 22 21.99 17.52 21.99 12C21.99 6.48 17.51 2 11.99 2ZM15.6 8.34C16.67 8.34 17.53 9.2 17.53 10.27C17.53 11.34 16.67 12.2 15.6 12.2C14.53 12.2 13.67 11.34 13.67 10.27C13.66 9.2 14.53 8.34 15.6 8.34ZM9.6 6.76C10.9 6.76 11.96 7.82 11.96 9.12C11.96 10.42 10.9 11.48 9.6 11.48C8.3 11.48 7.24 10.42 7.24 9.12C7.24 7.81 8.29 6.76 9.6 6.76ZM9.6 15.89V19.64C7.2 18.89 5.3 17.04 4.46 14.68C5.51 13.56 8.13 12.99 9.6 12.99C10.13 12.99 10.8 13.07 11.5 13.21C9.86 14.08 9.6 15.23 9.6 15.89ZM11.99 20C11.72 20 11.46 19.99 11.2 19.96V15.89C11.2 14.47 14.14 13.76 15.6 13.76C16.67 13.76 18.52 14.15 19.44 14.91C18.27 17.88 15.38 20 11.99 20Z" fill="#323232"/>
</g>
<defs>
<clipPath id="clip0_147_4803">
<rect width="24" height="24" fill="white"/>
</clipPath>
</defs>
</svg>
